Arcticons/scalable/apps/sensorz.svg

<svg viewBox="0 0 48 48" xmlns="http://www.w3.org/2000/svg">
 <defs>
  <style>.a{fill:none;stroke:#fff;stroke-linecap:round;stroke-linejoin:round;}</style>
 </defs>
 <path class="a" d="m29.1 26.8a1.47 1.47 0 0 1-1.7-1.5v-1.1a2 2 0 0 1 1.7-1.9 1.47 1.47 0 0 1 1.7 1.5v1.1a2 2 0 0 1-1.7 1.9z"/>
 <path class="a" d="m32.4 23.5a2 2 0 0 1 1.7-1.9"/>
 <line class="a" x1="32.4" x2="32.4" y1="21.8" y2="26.3"/>
 <polyline class="a" points="35 19.2 39.5 18.6 35 26 39.5 25.4"/>
 <path class="a" d="M8.6,29.2a1.79,1.79,0,0,0,1.4.2l.4-.1A1.38,1.38,0,0,0,11.5,28h0a1,1,0,0,0-1.1-1l-.8.1a1,1,0,0,1-1.1-1h0a1.38,1.38,0,0,1,1.1-1.3l.4-.1a1.89,1.89,0,0,1,1.4.2"/>
 <path class="a" d="M23,27.2a1.79,1.79,0,0,0,1.4.2l.4-.1A1.38,1.38,0,0,0,25.9,26h0a1,1,0,0,0-1.1-1l-.8.2a1,1,0,0,1-1.1-1h0A1.38,1.38,0,0,1,24,22.9l.4-.1a1.89,1.89,0,0,1,1.4.2"/>
 <path class="a" d="m16.2 27.7a2.17 2.17 0 0 1-1.5 1.1 1.47 1.47 0 0 1-1.7-1.5v-1.1a2 2 0 0 1 1.7-1.9 1.47 1.47 0 0 1 1.7 1.5v0.5l-3.4 0.4"/>
 <path class="a" d="m21.3 27.8v-2.8a1.53 1.53 0 0 0-1.7-1.5 2 2 0 0 0-1.7 1.9v2.8"/>
 <line class="a" x1="17.9" x2="17.9" y1="25.4" y2="23.7"/>
 <path class="a" d="m40.5 5.5h-33a2 2 0 0 0-2 2v33a2 2 0 0 0 2 2h33a2 2 0 0 0 2-2v-33a2 2 0 0 0-2-2z"/>
</svg>

<svg xmlns="http://www.w3.org/2000/svg" viewBox="0 0 48 48"><defs><style>.a{fill:none;stroke:#fff;stroke-linecap:round;stroke-linejoin:round;}</style></defs><path class="a" d="M29.1,26.8h0a1.47,1.47,0,0,1-1.7-1.5V24.2a2,2,0,0,1,1.7-1.9h0a1.47,1.47,0,0,1,1.7,1.5v1.1A2,2,0,0,1,29.1,26.8Z"/><path class="a" d="M32.4,23.5a2,2,0,0,1,1.7-1.9h0"/><line class="a" x1="32.4" y1="21.8" x2="32.4" y2="26.3"/><polyline class="a" points="35 19.2 39.5 18.6 35 26 39.5 25.4"/><path class="a" d="M8.6,29.2a1.79,1.79,0,0,0,1.4.2l.4-.1A1.38,1.38,0,0,0,11.5,28h0a1,1,0,0,0-1.1-1l-.8.1a1,1,0,0,1-1.1-1h0a1.38,1.38,0,0,1,1.1-1.3l.4-.1a1.89,1.89,0,0,1,1.4.2"/><path class="a" d="M23,27.2a1.79,1.79,0,0,0,1.4.2l.4-.1A1.38,1.38,0,0,0,25.9,26h0a1,1,0,0,0-1.1-1l-.8.2a1,1,0,0,1-1.1-1h0A1.38,1.38,0,0,1,24,22.9l.4-.1a1.89,1.89,0,0,1,1.4.2"/><path class="a" d="M16.2,27.7a2.17,2.17,0,0,1-1.5,1.1h0A1.47,1.47,0,0,1,13,27.3V26.2a2,2,0,0,1,1.7-1.9h0a1.47,1.47,0,0,1,1.7,1.5v.5l-3.4.4"/><path class="a" d="M21.3,27.8V25a1.53,1.53,0,0,0-1.7-1.5h0a2,2,0,0,0-1.7,1.9v2.8"/><line class="a" x1="17.9" y1="25.4" x2="17.9" y2="23.7"/><path class="a" d="M40.5,5.5H7.5a2,2,0,0,0-2,2v33a2,2,0,0,0,2,2h33a2,2,0,0,0,2-2V7.5A2,2,0,0,0,40.5,5.5Z"/></svg>
